!!!ONB: MCCC : ILB0191_02 : Extracted Monophonic Melody
!!!COM: Beethoven, Ludwig van
!!!OPR: Piano Sonata No.30
!!!OMV: 2
!!!SCT: Op.109
!!!ODT: 1820///
**kern
*thru
*staff1
*Ipiano
*clefG2
*k[f#]
*e:
*MM240
*M6/8
=1
4.g[
8g]
8e
8b
=2
4.b[
8b]
8g
8ee
=3
4ee
8ff#
4gg
8ff#
=4
4.ee
4dd#
8r
=5
4.cc[
8cc]
8a
8ee
=6
4.ee[
8ee]
8b
8bb
=7
8bb
8ccc
8aa
8gg
8ff#
8bb
=8
4ee
8r
4r
8r
=9
[4.a
8a]
8g
8f#
=10
[4.b
8b]
8a
8g
=11
4cc
8ff#[
4ff#]
8ee
=12
4dd#
8ff#
4gg
8ee
=13
[4.a
8a]
8g
8f#
=14
[4.b
8b]
8a
8g
=15
4cc
8ff#[
4ff#]
8ee
=16
4dd#
8ff#
8ee
8f#
8g
=17
4.a[
8a]
8g
8f#
=18
4.b[
8b]
8a
8g
=19
4cc
8ff#[
4ff#]
8ee
=20
4dd#
8ff#[
8ff#]
8gg
8ee
=21
4.a[
8a]
8g
8f#
=22
4.b[
8b]
8a
8g
=23
4cc
8ff#[
4ff#]
8ee
=24
4dd#
8ff#
4ee
8r
=25
4G
8F#
4D#
8E
=26
4.BB
4BB
8BB
=27
4.BB
4AA
8BB
=28
4.C
4.BB
=29
4gg
8ff#
4dd#
8ee
=30
4.b
4b
8b
=31
4.b
4a#
8b
=32
4.cc#
[4.dd
=33
4.dd_
8dd_
8dd]
8ee
=34
4.dd
8dd
8ee
8ff#
=35
4ee
8ff#
4gg
8ff#
=36
4ee
8dd
4cc#
8dd
=37
8cc#
8a#
8f#
8cc#
8dd
8ee
=38
8dd
8b
8f#
8dd
8ee
8ff#
=39
4ee
8ff#
4gg
8ff#
=40
4gg
8aa#
4bb
8aa#
=41
4bb
8ccc#
4ddd
8ccc#
=42
4ddd
8ccc#
4ddd
[8ddd
=43
4ddd]
8dd[
8dd]
8cc#
8b
=44
4b
8g#
4a
[8ff#
=45
4ff#]
8cc
4b
8a
=46
4a
8f#
4g
[8ee
=47
4ee]
8b-[
8b-]
8a
8g
=48
4g
8e
4f
8ff
=49
[2.ff
=50
4ff]
8ee
4dd
8gg
=51
4r
8r
4gg
8dd
=52
4gg
8r
4gg
8r
=53
4r
8r
4ggg
8ddd
=54
4ggg
8r
4ggg
8r
=55
8B
8d
8c
4g
8d
=56
4f#
8F#
4f#
8F#
=57
4.r
8B
8c#
8d
=58
8e
8f#
8g#
8a#
8b
8cc#
=59
8dd
8ee
8ff#
8gg#
8aa
8aa#
=60
8bb
8aa#
8bb
8ccc#
8ddd
8eee
=61
4fff#
8r
4fff#
8r
=62
4fff#
8r
4fff#
8r
=63
4.ddd
4.ccc#
=64
4.bb
4aa
8gg
=65
4ff#
8r
4ff#
8r
=66
4bb
8r
8b
8f#
8dd
=67
8dd
8b
8ff#
8ff#
8dd
8bb
=68
8bb
8eee
8ddd
8ccc#
8ddd
8bb
=69
8aa#
8gg
8ff#
8ee
8dd
8cc#
=70
2.b
=71
2.a
=72
2.ee
=73
2.dd
=74
4.cc#
4.a#
=75
2.b
=76
2.a
=77
2.g
=78
4.f#
4.d#
=79
2.e
=80
2.A
=81
2.g
=82
4.f
4.d
=83
4.e
4.cc[
=84
4.cc]
4.b
=85
4r
8r
4.cc
=86
4.ee
4.dd#
=87
2.e
=88
2.f
=89
2.dd
=90
2.cc
=91
4.b
4.g#
=92
2.a
=93
2.g
=94
2.f#
=95
4.e
4.g
=96
2.f#
=97
2.ee
=98
2.ff#
=99
4.gg
4.ee
=100
2.ff#
=101
4.ee
4.gg
=102
4ff#
8r
4r
8r
=103
4ff#
8r
4r
8r
=104
4ff#
8r
4r
8r
=105
4.g[
8g]
8e
8b
=106
4.b[
8b]
8g
8ee
=107
4ee
8ff#
4gg
8ff#
=108
4.ee
4dd#
8r
=109
4.cc[
8cc]
8a
8ee
=110
4.ee[
8ee]
8b
8bb
=111
8bb
8ccc
8aa
8gg
8ff#
8bb
=112
4.ee
[4.eee
=113
4.eee]
4ddd
8r
=114
4ccc
8r
4aa
8r
=115
2.bb
=116
4.aa
[4.aaa
=117
4.aaa]
4ggg
8r
=118
4fff#
8r
4ddd#
8r
=119
4eee
8r
4bb
8r
=120
4ee
8dd
4b
8cc
=121
4.g
4g
8g
=122
4.g
4f#
8g
=123
4.a
4.g
=124
4E
8D
4BB
8C
=125
4.GG
4r
8r
=126
4e
8d
4B
8c#
=127
4.A#
4A#
8A#
=128
4cc
8b
4g#
8a
=129
4.a
4a
8a
=130
4aa
8gg
4ee
8ff#
=131
4.ff#
4ff#
8ff#
=132
4.ff#
8ff#
8gg
8aa
=133
4.gg
8gg
8aa
8bb
=134
4aa
8bb
4ccc
8bb
=135
4aa
8gg
4ff#
8gg
=136
8ff#
8dd#
8b
8ff#
8gg
8aa
=137
8gg
8ee
8b
8gg
8aa
8bb
=138
4aa
8bb
4ccc
8bb
=139
4aa
8gg
4ff#
8gg
=140
4aa
8bb
4ccc
8bb
=141
4ccc
8ddd#
4eee
8ddd#
=142
4eee
8fff#
4ggg
8fff#
=143
4ggg
8fff#
4ggg
[8ggg
=144
4ggg]
8gg[
8gg]
8ff#
8ee
=145
4ee
8cc#
4dd
[8fff
=146
4fff]
8ff[
8ff]
8ee
8dd
=147
4dd
8b
4cc
[8eee-
=148
4eee-]
8ee-[
8ee-]
8dd
8cc
=149
4cc
8a
4b-
8bb-
=150
[2.bb-
=151
4bb-]
8aa
4gg
8ccc
=152
4r
8r
4ccc
8gg
=153
4ccc
8r
4ccc
8r
=154
4r
8r
4cc
8g
=155
4cc
8r
4cc
8r
=156
8E
8G
8F
4c
8G
=157
4B
8E
4B
8F#
=158
8B
8c#
8d#
8e
8f#
8g
=159
8a
8b
8cc#
8dd#
8ee
8ff#
=160
8gg
8aa
8bb
8ccc#
8ddd
8ddd#
=161
8eee
8ddd#
8eee
8fff#
8ggg
8aaa
=162
*8va
4bbb
8r
4bbb
8r
=163
4bbb
8r
4bbb
8r
=164
4.ggg
4.fff#
=165
4.eee
4ddd
8ccc
*X8va
=166
4bb
8r
4bb
8r
=167
4eee
8r
4r
8r
=168
4f#
8r
4f#
8r
=169
4B
8r
4r
8r
=170
2.r
=171
4.b
4.b
=172
4.ee
4.ee
=173
4.gg
4.gg
=174
4.ccc
4.ccc
=175
4.eee
4.eee
=176
4eee
8r
4ddd#
8r
=177
4eee
8r
4r
8r
==
*-
